public/icons/tokens/weth.svg

<svg width="46" height="46" viewBox="0 0 46 46" fill="none" xmlns="http://www.w3.org/2000/svg">
  <path d="M45.75 23C45.75 35.5645 35.5645 45.75 23 45.75C10.4355 45.75 0.25 35.5645 0.25 23C0.25 10.4355 10.4355 0.25 23 0.25C35.5645 0.25 45.75 10.4355 45.75 23Z" fill="white" stroke="#383D51" stroke-width="0.5"/>
  <path d="M16.3581 39.8004C24.9574 39.8004 24.9574 39.6723 26.4156 39.2396C28.3203 38.6739 21.0358 33.631 16.3581 33.631C11.6805 33.631 7.88892 35.0119 7.88892 36.7153C7.88892 38.4188 11.6803 39.8004 16.3581 39.8004Z" fill="black"/>
  <path d="M35.8846 13.5687L36.2799 13.9949L35.9342 14.4621C24.719 29.6259 18.2583 36.4918 15.5172 35.5707C13.8475 35.0099 12.173 33.323 10.4987 30.8735C9.91006 30.0126 9.35752 29.1059 8.85475 28.2037C8.51999 27.603 8.23663 27.0549 8.08964 26.7464C7.93582 26.4451 7.82484 26.1238 7.75992 25.7917L7.75237 25.7535C7.72614 25.6182 7.71643 25.5756 7.69739 25.5019C6.92703 22.6008 7.0277 19.537 7.98683 16.6927C8.94596 13.8484 10.7211 11.3493 13.091 9.50704C15.4609 7.6648 18.3206 6.56089 21.3136 6.33297C24.3066 6.10504 27.3005 6.76318 29.922 8.22532L29.9803 8.26125C31.8294 9.54901 33.7975 11.3182 35.8846 13.5687ZM29.2076 9.43228C26.8256 8.11327 24.1085 7.52345 21.394 7.73614C18.6795 7.94883 16.0874 8.95464 13.9399 10.6285C11.7924 12.3025 10.1842 14.5706 9.31534 17.1511C8.44644 19.7315 8.35514 22.5104 9.05277 25.1424C9.08314 25.2566 9.09679 25.3211 9.12896 25.4868L9.1356 25.5208C9.17805 25.738 9.25209 25.9478 9.35536 26.1436C9.48959 26.4251 9.7593 26.9466 10.0797 27.5218C10.5629 28.3889 11.0937 29.2597 11.6563 30.0827C13.169 32.2957 14.6694 33.8071 15.9637 34.2419C17.69 34.8218 24.1887 27.9424 34.4591 14.0989C32.5946 12.1304 30.8441 10.5749 29.2076 9.43228Z" fill="black"/>
  <path d="M29.2074 9.43244C26.8254 8.11349 24.1083 7.52371 21.3938 7.73643C18.6794 7.94915 16.0873 8.95497 13.9398 10.6289C11.7924 12.3028 10.1842 14.5709 9.31534 17.1513C8.44646 19.7317 8.35513 22.5106 9.05273 25.1425C9.0831 25.2568 9.09676 25.3213 9.12892 25.487L9.13557 25.5209C9.17805 25.738 9.25208 25.9477 9.35533 26.1434C9.48955 26.4249 9.75927 26.9464 10.0796 27.5216C10.5628 28.3888 11.0936 29.2595 11.6562 30.0825C13.169 32.2955 14.6694 33.8069 15.9637 34.2417C17.69 34.8216 24.1887 27.9422 34.4591 14.0987C32.5944 12.1303 30.8439 10.5749 29.2074 9.43244Z" fill="#EC1C79"/>
  <path d="M25.2752 39.6603C22.2524 39.6603 19.2975 38.7639 16.7841 37.0845C14.2708 35.4052 12.3119 33.0182 11.1551 30.2255C9.99832 27.4328 9.69566 24.3598 10.2854 21.3951C10.8751 18.4304 12.3307 15.7071 14.4681 13.5697C16.6056 11.4323 19.3288 9.97665 22.2935 9.38694C25.2583 8.79722 28.3313 9.09988 31.1239 10.2567C33.9166 11.4134 36.3036 13.3724 37.983 15.8857C39.6623 18.3991 40.5587 21.354 40.5587 24.3768C40.5587 28.4302 38.9485 32.3176 36.0823 35.1838C33.2161 38.05 29.3286 39.6603 25.2752 39.6603ZM25.2752 38.2587C28.0206 38.2587 30.7044 37.4445 32.9871 35.9192C35.2698 34.394 37.049 32.226 38.0996 29.6896C39.1502 27.1532 39.4251 24.3621 38.8895 21.6695C38.354 18.9768 37.0319 16.5034 35.0907 14.5621C33.1494 12.6208 30.676 11.2987 27.9834 10.763C25.2907 10.2274 22.4997 10.5022 19.9632 11.5528C17.4268 12.6033 15.2588 14.3824 13.7335 16.6651C12.2081 18.9478 11.3939 21.6315 11.3938 24.3769C11.3938 26.1999 11.7529 28.0049 12.4505 29.6891C13.1481 31.3733 14.1706 32.9035 15.4596 34.1925C16.7486 35.4815 18.2789 36.504 19.963 37.2016C21.6472 37.8992 23.4523 38.2582 25.2752 38.2582V38.2587Z" fill="black"/>
  <path d="M25.2755 38.2582C28.0209 38.2582 30.7047 37.4441 32.9875 35.9188C35.2702 34.3935 37.0494 32.2256 38.1001 29.6891C39.1507 27.1527 39.4256 24.3616 38.89 21.6689C38.3544 18.9762 37.0324 16.5028 35.0911 14.5615C33.1498 12.6202 30.6764 11.2981 27.9837 10.7625C25.291 10.2268 22.5 10.5017 19.9635 11.5523C17.4271 12.6029 15.2591 14.3821 13.7338 16.6648C12.2085 18.9476 11.3943 21.6313 11.3943 24.3768C11.3943 26.1997 11.7533 28.0048 12.4509 29.6889C13.1485 31.3731 14.1709 32.9034 15.4599 34.1924C16.7489 35.4814 18.2792 36.5039 19.9634 37.2015C21.6475 37.8991 23.4526 38.2582 25.2755 38.2582Z" fill="white"/>
  <path fill-rule="evenodd" clip-rule="evenodd" d="M14.8917 27.2203L13.0542 21.6847H14.6638L15.6218 24.8652L16.6819 21.6694H17.9936L19.0538 24.8652L20.0117 21.6847H21.5899L19.7521 27.2203H18.4251L17.318 24.056L16.2187 27.2203H14.8917ZM22.194 27.181V21.6847H26.6143V22.9803H23.7016V23.8126H26.3401V25.014H23.7016V25.8856H26.654V27.1812L22.194 27.181ZM28.774 27.181V23.0196H27.1252V21.6847H31.9464V23.0196H30.2974V27.1812L28.774 27.181ZM32.6137 27.181V21.6847H34.1369V23.7419H36.0921V21.6847H37.6153V27.1812H36.0921V25.0925H34.1369V27.1812L32.6137 27.181Z" fill="black"/>
  <path d="M8.09849 20.0315C7.91666 19.9359 7.77955 19.7728 7.71655 19.5773C7.65355 19.3818 7.66968 19.1694 7.76149 18.9856C7.85329 18.8018 8.01345 18.6613 8.20763 18.5943C8.4018 18.5272 8.61452 18.5389 8.80017 18.6269L11.0436 19.7487C11.137 19.7941 11.2205 19.8576 11.2892 19.9354C11.3579 20.0133 11.4105 20.1041 11.4439 20.2024C11.4773 20.3007 11.4908 20.4047 11.4838 20.5084C11.4767 20.612 11.4491 20.7132 11.4027 20.8061C11.3563 20.899 11.2918 20.9817 11.2132 21.0496C11.1345 21.1174 11.0432 21.169 10.9445 21.2012C10.8458 21.2335 10.7417 21.2459 10.6381 21.2377C10.5346 21.2295 10.4337 21.2008 10.3413 21.1533L8.09849 20.0315Z" fill="black"/>
  <path d="M7.84009 23.7511C7.74511 23.7088 7.65948 23.648 7.58818 23.5723C7.51688 23.4966 7.46132 23.4075 7.42473 23.3102C7.38814 23.2129 7.37125 23.1092 7.37503 23.0053C7.37882 22.9014 7.4032 22.7993 7.44677 22.7049C7.49035 22.6104 7.55224 22.5256 7.62886 22.4553C7.70547 22.385 7.79529 22.3306 7.8931 22.2953C7.9909 22.26 8.09475 22.2445 8.19861 22.2496C8.30246 22.2548 8.40427 22.2805 8.4981 22.3253L10.7415 23.3607C10.8365 23.403 10.9221 23.4638 10.9934 23.5394C11.0647 23.6151 11.1203 23.7042 11.1569 23.8016C11.1934 23.8989 11.2103 24.0025 11.2066 24.1065C11.2028 24.2104 11.1784 24.3125 11.1348 24.4069C11.0912 24.5013 11.0293 24.5862 10.9527 24.6565C10.8761 24.7268 10.7863 24.7811 10.6885 24.8165C10.5907 24.8518 10.4868 24.8673 10.383 24.8622C10.2791 24.857 10.1773 24.8313 10.0835 24.7865L7.84009 23.7511Z" fill="black"/>
</svg>

<svg width="46" height="46" fill="none" xmlns="http://www.w3.org/2000/svg"><path d="M45.75 23c0 12.565-10.185 22.75-22.75 22.75S.25 35.565.25 23 10.435.25 23 .25 45.75 10.435 45.75 23Z" fill="#fff" stroke="#383D51" stroke-width=".5"/><path d="M16.358 39.8c8.6 0 8.6-.128 10.058-.56 1.904-.566-5.38-5.609-10.058-5.609s-8.47 1.38-8.47 3.084c0 1.704 3.792 3.085 8.47 3.085Z" fill="#000"/><path d="m35.885 13.569.395.426-.346.467C24.72 29.626 18.258 36.492 15.517 35.571c-1.67-.561-3.344-2.248-5.018-4.697a34.592 34.592 0 0 1-1.644-2.67 29.045 29.045 0 0 1-.765-1.458 3.632 3.632 0 0 1-.33-.954l-.008-.039a3.493 3.493 0 0 0-.055-.251A15.29 15.29 0 0 1 29.922 8.225l.058.036c1.85 1.288 3.817 3.057 5.905 5.308Zm-6.677-4.137a13.89 13.89 0 0 0-20.155 15.71c.03.115.044.18.076.345l.007.034c.042.217.116.427.22.623.134.281.403.803.724 1.378a33.242 33.242 0 0 0 1.576 2.56c1.513 2.214 3.013 3.725 4.308 4.16 1.726.58 8.225-6.3 18.495-20.143-1.864-1.969-3.615-3.524-5.251-4.667Z" fill="#000"/><path d="M29.207 9.432a13.89 13.89 0 0 0-20.154 15.71c.03.115.044.18.076.345l.007.034c.042.217.116.427.22.622.134.282.403.803.724 1.379a33.223 33.223 0 0 0 1.576 2.56c1.513 2.213 3.013 3.725 4.308 4.16 1.726.58 8.225-6.3 18.495-20.143-1.865-1.969-3.615-3.524-5.252-4.667Z" fill="#EC1C79"/><path d="M25.275 39.66a15.284 15.284 0 1 1 0-30.567 15.284 15.284 0 0 1 0 30.567Zm0-1.401a13.88 13.88 0 1 0 0-27.761 13.88 13.88 0 0 0 0 27.76Z" fill="#000"/><path d="M25.276 38.258a13.881 13.881 0 1 0 0-27.763 13.881 13.881 0 0 0 0 27.763Z" fill="#fff"/><path fill-rule="evenodd" clip-rule="evenodd" d="m14.892 27.22-1.838-5.535h1.61l.958 3.18 1.06-3.196h1.312l1.06 3.196.958-3.18h1.578l-1.838 5.535h-1.327l-1.107-3.164-1.1 3.164h-1.326Zm7.302-.039v-5.496h4.42v1.295h-2.912v.833h2.638v1.201h-2.638v.872h2.952v1.295h-4.46Zm6.58 0V23.02h-1.649v-1.335h4.821v1.335h-1.649v4.161h-1.523Zm3.84 0v-5.496h1.523v2.057h1.955v-2.057h1.523v5.496h-1.523v-2.088h-1.955v2.088h-1.523Z" fill="#000"/><path d="M8.098 20.032a.785.785 0 0 1 .702-1.405l2.244 1.122a.786.786 0 1 1-.703 1.404l-2.243-1.121Zm-.258 3.719a.785.785 0 1 1 .658-1.426l2.244 1.036a.786.786 0 1 1-.659 1.425L7.84 23.752Z" fill="#000"/></svg>
